dataset/cube-files/LUT01.cube
TITLE "Generated by Resolve"
LUT_3D_SIZE 5
0 0 0
0.18616 0 0
0.483757 0 0
0.757168 0 0
0.940352 0 0
0 0.178851 0
0.18674 0.18674 0
0.508064 0.174853 0
0.811963 0.180301 0
1 0.216709 0.0250095
0 0.476875 0
0.172 0.511803 0
0.509316 0.513283 0
0.82092 0.523476 0
1 0.558968 0.0340429
0 0.810681 0
0.202991 0.843519 0.019089
0.531304 0.839124 0.0151369
0.827146 0.833082 0.00943008
1 0.845014 0.0215305
0.0749676 1 0.0749676
0.26685 1 0.0837873
0.567864 1 0.055024
0.841123 1 0.0286259
1 1 0.0244297
0 0 0.189853
0.184146 0 0.184146
0.482429 0 0.149187
0.757702 0 0.125978
0.938338 0 0.143328
0 0.180438 0.180438
0.191699 0.191699 0.191699
0.515236 0.183703 0.185763
0.820829 0.191653 0.193698
1 0.228534 0.230594
0 0.487511 0.165042
0.176959 0.521996 0.214969
0.520272 0.524224 0.19556
0.833036 0.534585 0.201373
1 0.569177 0.235981
0 0.819364 0.220233
0.207828 0.85182 0.245838
0.534295 0.845655 0.228244
0.830869 0.836805 0.209583
1 0.846204 0.215274
0.0754711 1 0.299641
0.263539 1 0.301534
0.562768 1 0.264088
0.842878 1 0.222446
1 1 0.213977
0 0 0.511055
0.172 0 0.505241
0.471366 0 0.471366
0.749004 0 0.450523
0.926101 0 0.486152
0 0.172915 0.506157
0.187686 0.187686 0.520912
0.499977 0.183566 0.557549
0.813321 0.1935 0.546059
1 0.230106 0.576211
0 0.485222 0.546761
0.166232 0.519585 0.610513
0.524926 0.524926 0.524926
0.831586 0.535683 0.539788
1 0.568933 0.573037
0 0.816388 0.59881
0.198917 0.847883 0.623697
0.519097 0.840711 0.595087
0.823468 0.829419 0.540169
1 0.836469 0.538033
0.0640574 1 0.665263
0.250248 1 0.654078
0.554803 1 0.59176
0.83415 1 0.541344
1 1 0.535073
0 0 0.799847
0.1626 0 0.794324
0.463462 0 0.761944
0.738689 0 0.757549
0.915633 0 0.809369
0 0.169039 0.800763
0.185641 0.187045 0.828687
0.490822 0.184298 0.91342
0.803662 0.196994 0.890043
1 0.233524 0.905241
0 0.483345 0.921111
0.164813 0.519265 0.962463
0.490822 0.527077 0.954223
0.812482 0.539406 0.898848
1 0.570871 0.898283
0 0.814847 0.951247
0.191623 0.844266 0.980667
0.504448 0.835615 0.948669
0.823407 0.823407 0.823407
1 0.829145 0.835294
0.0548104 1 0.994781
0.243595 1 0.953857
0.549279 1 0.877806
0.826307 1 0.82678
1 1 0.824125
0 0 0.975509
0.162387 0 0.970687
0.465141 0 0.940215
0.72108 0 1
0.914839 0 1
0 0.175174 0.983474
0.18468 0.193194 1
0.49659 0.193545 1
0.805035 0.207736 1
1 0.24506 1
0 0.491539 1
0.174365 0.528359 1
0.500099 0.536339 1
0.807019 0.548898 1
1 0.579797 1
0 0.821485 1
0.196612 0.848936 1
0.51223 0.838544 1
0.805264 0.825666 1
1 0.829709 1
0.0556344 1 1
0.246143 1 1
0.552056 1 1
0.825528 1 1
1 1 1
