dataset/cube-files/LUT01.cube
TITLE "Generated by Resolve"
LUT_3D_SIZE 33
0 0 0
0.0206302 0 0
0.0413214 0 0
0.0620432 9.15541e-05 9.15541e-05
0.08336 0 0
0.105852 0 0
0.130083 0 0
0.156771 0 0
0.18616 0 0
0.218479 0 0
0.253681 0 0
0.291005 0 0
0.329534 0 0
0.368368 0 0
0.406577 0 0
0.444877 0 0
0.483757 0 0
0.522713 0 0
0.561212 0 0
0.598672 0 0
0.634623 0 0
0.668482 0 0
0.700114 0 0
0.729641 0 0
0.757168 0 0
0.782834 0 0
0.807019 0 0
0.830137 0 0
0.852552 0 0
0.874571 0 0
0.896559 0 0
0.918822 0 0
0.940352 0 0
0 0.020798 0
0.0208133 0.0208133 0
0.0413825 0.0208438 4.57771e-05
0.0619974 0.0208438 3.0518e-05
0.083238 0.0206455 0
0.105653 0.0201114 0
0.129854 0.0191043 0
0.156527 0.0174258 0
0.185931 0.0150301 0
0.218265 0.0118715 0
0.253529 0.00793469 0
0.290929 0.00347906 0
0.329564 0 0
0.368505 0 0
0.406882 0 0
0.44535 0 0
0.484428 0 0
0.523598 0 0
0.562325 0 0
0.600061 0 0
0.636286 0 0
0.670451 0 0
0.702419 0 0
0.732296 0 0
0.76022 0 0
0.786313 0 0
0.810956 0 0
0.834577 0 0
0.857481 0 0
0.880003 0 0
0.901549 0 0
0.923079 0 0
0.946151 0 0
0.000122072 0.0414435 0.000122072
0.0208591 0.0413825 4.57771e-05
0.0413672 0.0413672 3.0518e-05
0.0619516 0.0413367 0
0.0831922 0.0411383 0
0.105623 0.0406195 0
0.12987 0.0396429 0
0.156603 0.0380407 0
0.186084 0.0357214 0
0.21854 0.0326696 0
0.253941 0.0288701 0
0.291493 0.024567 0
0.330297 0.0199893 0
0.369451 0.0154269 0
0.408042 0.0110933 0
0.446754 0.00683604 0
0.486107 0.00251774 0
0.525582 0 0
0.564614 0 0
0.602701 0 0
0.639277 0 0
0.673869 0 0
0.706279 0 0
0.736614 0 0
0.765026 0 0
0.791623 0 0
0.816785 0 0
0.840909 0 0
0.863523 0 0
0.885679 0 0
0.908629 0 0
0.931884 0 0
0.95552 0 0
0 0.0619669 0
0.0207523 0.0619059 0
0.0412909 0.0619059 0
0.0619211 0.0619211 0
0.0832227 0.061799 0
0.10576 0.0613718 0
0.130114 0.0605173 0
0.156985 0.0590524 0
0.186648 0.0569009 0
0.219287 0.0540322 0
0.254887 0.0504463 0
0.292668 0.0463722 0
0.331746 0.0420691 0
0.371176 0.0377661 0
0.410071 0.0337377 0
0.449104 0.0298161 0
0.488807 0.0258488 0
0.528649 0.0219883 0
0.568109 0.0184329 0
0.606653 0.0153048 0
0.643717 0.0127565 0
0.678798 0.0109407 0
0.711711 0.0099031 0
0.742565 0.00959792 0
0.771496 0.0100404 0
0.798611 0.0111543 0
0.823621 0.0130617 0
0.84773 0.0154116 0
0.871626 0.0180209 0
0.895155 0.0209506 0
0.918685 0.024094 0
0.942519 0.0273747 0
0.966735 0.0307927 0
0 0.0828107 0
0.0202335 0.082826 0
0.0408789 0.0829328 0
0.0616465 0.0830701 0
0.0831006 0.0831006 0
0.105806 0.0828565 0
0.130358 0.0822003 0
0.157443 0.0809491 0
0.18735 0.0790417 0
0.220249 0.0764324 0
0.256138 0.0731365 0
0.29424 0.0693675 0
0.333639 0.0654002 0
0.373434 0.0614633 0
0.412726 0.0578164 0
0.452186 0.0543221 0
0.492363 0.0508278 0
0.532692 0.0474556 0
0.572656 0.0443885 0
0.611688 0.0417792 0
0.649271 0.0397345 0
0.684871 0.0384375 0
0.718303 0.0379339 0
0.749706 0.0381781 0
0.778607 0.0393072 0
0.806043 0.0410468 0
0.832212 0.0433356 0
0.857374 0.046128 0
0.881849 0.0493172 0
0.905989 0.0528267 0
0.930098 0.0565805 0
0.954513 0.0604257 0
0.979278 0.0643931 0
0 0.104448 0
0.019089 0.104616 0
0.0399176 0.104906 0
0.0608682 0.105257 0
0.0825513 0.105501 0
0.105516 0.105516 0
0.130343 0.105119 0
0.157733 0.104173 0
0.187945 0.102586 0
0.221195 0.100313 0
0.25745 0.0973983 0
0.295949 0.0940414 0
0.335805 0.0905013 0
0.376074 0.0870375 0
0.415854 0.0838941 0
0.455817 0.0809033 0
0.496498 0.0779126 0
0.537346 0.0750591 0
0.577829 0.0725261 0
0.617395 0.0704356 0
0.655528 0.0689403 0
0.691661 0.0681926 0
0.725307 0.0683299 0
0.757198 0.0691691 0
0.787167 0.0707256 0
0.815351 0.0729992 0
0.84213 0.0758831 0
0.867887 0.0792554 0
0.892943 0.0830091 0
0.917601 0.087068 0
0.942214 0.0912947 0
0.967102 0.095613 0
0.992294 0.0999924 0
0 0.127352 0
0.0170138 0.127764 0
0.0380865 0.128313 0
0.0593423 0.128939 0
0.0813306 0.129488 0
0.104616 0.129824 0
0.129793 0.129793 0
0.157565 0.129213 0
0.18819 0.128054 0
0.221897 0.126238 0
0.25864 0.123812 0
0.297642 0.120943 0
0.338003 0.117906 0
0.378775 0.114961 0
0.419074 0.112337 0
0.459571 0.109865 0
0.500786 0.107408 0
0.542168 0.105104 0
0.583215 0.10312 0
0.623346 0.101595 0
0.661936 0.100679 0
0.698619 0.100526 0
0.73315 0.101167 0
0.765637 0.102586 0
0.796216 0.104723 0
0.824964 0.107561 0
0.852277 0.110964 0
0.878523 0.114809 0
0.904021 0.11902 0
0.929107 0.123476 0
0.954086 0.128069 0
0.979309 0.132723 0.00115969
1 0.137392 0.00582895
0 0.152026 0
0.0136568 0.152758 0
0.0350805 0.153643 0
0.0566873 0.15462 0
0.0790723 0.155581 0
0.102785 0.156344 0
0.128435 0.156786 0
0.156695 0.156695 0
0.187839 0.156039 0
0.222049 0.154726 0
0.259297 0.152804 0
0.298833 0.150469 0
0.339712 0.147967 0
0.381018 0.145556 0
0.421866 0.143481 0
0.462913 0.141558 0
0.504692 0.139666 0
0.546654 0.137926 0
0.588266 0.136522 0
0.628992 0.135576 0
0.668254 0.135241 0
0.705531 0.135653 0
0.740627 0.136828 0
0.773648 0.13875 0
0.8047 0.14136 0
0.833906 0.14461 0
0.861616 0.148409 0
0.888228 0.152621 0
0.914061 0.157137 0
0.939437 0.161868 0.00196841
0.964675 0.16672 0.00682078
0.990097 0.171572 0.0116732
1 0.17641 0.0165103
0 0.178851 0
0.00909438 0.17998 0
0.0309606 0.181323 0
0.0530404 0.182773 0
0.0759136 0.184222 0
0.100145 0.185489 0
0.126299 0.186435 0
0.155077 0.186877 0
0.18674 0.18674 0
0.221469 0.185962 0
0.259281 0.184573 0
0.299351 0.182788 0
0.34078 0.180835 0
0.382666 0.179004 0
0.424079 0.177493 0
0.465721 0.17615 0
0.508064 0.174853 0
0.550622 0.173709 0
0.592813 0.172854 0
0.634058 0.172442 0
0.673823 0.172595 0
0.711574 0.173465 0
0.747127 0.175051 0
0.780545 0.17734 0
0.811963 0.180301 0
0.841489 0.183856 0
0.86949 0.187915 0
0.896345 0.19234 0.000656138
0.922377 0.197055 0.00535592
0.947921 0.201938 0.0102388
0.973281 0.206912 0.0152132
0.998795 0.211841 0.0201419
1 0.216709 0.0250095
0 0.20824 0
0.0034638 0.209857 0
0.0258335 0.211704 0
0.0484321 0.213672 0
0.0718242 0.215641 0
0.0965744 0.217441 0
0.123262 0.218921 0
0.15259 0.219898 0
0.184802 0.22031 0
0.220096 0.220096 0
0.258473 0.219287 0
0.299123 0.218067 0
0.341146 0.216709 0
0.383612 0.215457 0
0.425422 0.214588 0
0.467567 0.213809 0
0.510552 0.213001 0
0.553643 0.212314 0
0.596307 0.211902 0
0.63798 0.211887 0
0.678126 0.212406 0
0.716197 0.213596 0
0.752041 0.215488 0
0.785733 0.218021 0
0.817395 0.22118 0
0.84712 0.224918 0
0.875273 0.229114 0.00190738
0.902251 0.233646 0.00643931
0.928359 0.238407 0.0112001
0.953948 0.24332 0.0161135
0.979324 0.24828 0.0210727
1 0.253162 0.0259556
1 0.257954 0.0307469
0 0.240375 0
0 0.242527 0
0.0198367 0.244892 0
0.0429694 0.24741 0
0.0669108 0.249912 0
0.0922103 0.252277 0
0.119478 0.254307 0
0.149371 0.255863 0
0.182162 0.256855 0
0.218051 0.257237 0
0.257008 0.257008 0
0.298222 0.256352 0
0.340642 0.255589 0
0.382803 0.255055 0
0.425513 0.25452 0
0.46833 0.254124 0
0.511772 0.253681 0
0.555276 0.25333 0
0.598306 0.253223 0
0.640314 0.253468 0
0.680735 0.254231 0
0.719036 0.255619 0
0.755032 0.257664 0
0.788861 0.260334 0
0.8206 0.263584 0
0.850385 0.267369 0.000976577
0.878569 0.271565 0.00517281
0.905547 0.276081 0.00968948
0.931624 0.280781 0.0143893
0.957122 0.285588 0.0191958
0.982376 0.29041 0.0240177
1 0.295109 0.0287175
1 0.299687 0.0332952
0 0.275059 0
0 0.27776 0
0.0137636 0.28069 0
0.0374762 0.283772 0
0.0619821 0.286854 0
0.0878767 0.289784 0
0.115724 0.292424 0
0.146197 0.29456 0
0.179553 0.296117 0
0.215961 0.297017 0
0.255314 0.297307 0
0.295995 0.297383 0
0.338293 0.297169 0
0.381979 0.296712 0
0.425086 0.296498 0
0.468269 0.296391 0
0.512032 0.296193 0
0.55581 0.296056 0
0.599084 0.296117 0
0.641291 0.296513 0
0.68188 0.297368 0
0.720302 0.298817 0
0.756374 0.300893 0
0.790219 0.303563 0
0.821927 0.306783 0
0.851637 0.310491 0.00222782
0.879713 0.31458 0.00631724
0.906538 0.318929 0.0106813
0.932433 0.323445 0.015198
0.957763 0.328054 0.019791
0.982925 0.332753 0.0244907
1 0.337469 0.0292058
1 0.342184 0.0339208
0 0.312062 0
0 0.315343 0
0.00854505 0.318853 0
0.0328374 0.322515 0
0.0579385 0.326177 0
0.0843824 0.329671 0
0.112734 0.332815 0
0.143694 0.335424 0
0.177417 0.337438 0
0.213443 0.338964 0
0.251499 0.340078 0
0.2934 0.34023 0
0.337057 0.340017 0
0.381018 0.339803 0
0.424369 0.339803 0
0.467781 0.339834 0
0.511727 0.339773 0
0.555673 0.339727 0
0.599054 0.339834 0
0.641337 0.34023 0
0.681956 0.341054 0
0.720378 0.342458 0
0.756405 0.344442 0
0.790158 0.34696 0
0.821744 0.350011 0
0.851286 0.353506 0.00187686
0.879179 0.357427 0.00578317
0.905943 0.361715 0.0100862
0.931899 0.366293 0.0146487
0.957382 0.371054 0.0194247
0.982712 0.375921 0.0242771
1 0.380774 0.0291295
1 0.385595 0.0339666
0 0.351125 0
0 0.354971 0
0.00500496 0.35903 0
0.0297856 0.363195 0
0.0553445 0.367315 0
0.0822156 0.371237 0
0.110918 0.374777 0
0.141604 0.37792 0
0.174304 0.380606 0
0.209583 0.382696 0
0.249912 0.383474 0
0.292439 0.383719 0
0.336248 0.383658 0
0.380346 0.383566 0
0.423819 0.383642 0
0.467308 0.383719 0
0.511299 0.383658 0
0.555261 0.383566 0
0.598642 0.383597 0
0.640864 0.383886 0
0.681392 0.384558 0
0.719676 0.385763 0
0.75555 0.387533 0
0.789212 0.389914 0
0.820813 0.39292 0
0.850492 0.396521 0.00115969
0.878599 0.400595 0.00523384
0.905531 0.405035 0.00967422
0.931624 0.409735 0.014374
0.957214 0.414618 0.0192569
0.982635 0.419562 0.0242008
1 0.424475 0.0291142
1 0.429343 0.0339818
0 0.391745 0
0 0.396048 0
0.00355535 0.400504 0
0.0287175 0.405051 0
0.0545815 0.409522 0
0.0813153 0.413855 0
0.109239 0.41796 0
0.138949 0.421637 0
0.172137 0.424445 0
0.209522 0.426123 0
0.249897 0.427039 0
0.292485 0.427359 0
0.336294 0.427344 0
0.380377 0.427253 0
0.423819 0.427283 0
0.467247 0.427283 0
0.511177 0.427085 0
0.555016 0.426841 0
0.598245 0.426673 0
0.640314 0.426749 0
0.680797 0.427314 0
0.719142 0.428534 0
0.755215 0.430426 0
0.789075 0.432959 0
0.820874 0.436103 0
0.850706 0.439826 0.0015259
0.878935 0.443992 0.00569162
0.905989 0.448493 0.0102083
0.932174 0.453239 0.0149538
0.957809 0.458152 0.0198672
0.983246 0.463111 0.0248112
1 0.468009 0.0297093
1 0.472831 0.0345464
0 0.433738 0
0 0.438361 0
0.00317388 0.443107 0
0.0283207 0.447974 0
0.0536507 0.452873 0
0.0796063 0.457649 0
0.106691 0.46215 0
0.138033 0.465507 0
0.172335 0.468071 0
0.209674 0.469795 0
0.250004 0.470695 0
0.29247 0.470985 0
0.336156 0.470878 0
0.380102 0.470665 0
0.423377 0.470527 0
0.466606 0.470329 0
0.510384 0.469963 0
0.554208 0.469642 0
0.597543 0.469535 0
0.639811 0.46978 0
0.680491 0.470497 0
0.71902 0.471824 0
0.755245 0.473823 0
0.789242 0.476448 0
0.821149 0.479652 0
0.851057 0.483391 0.00213626
0.879362 0.487572 0.00631724
0.906447 0.492073 0.0108186
0.932647 0.496803 0.0155489
0.958282 0.501656 0.0204013
0.983673 0.506539 0.0252842
1 0.511345 0.0300908
1 0.51606 0.0348058
0 0.476875 0
0 0.481727 0
0.00242618 0.486778 0
0.026978 0.491966 0
0.051606 0.497154 0
0.0776684 0.501961 0
0.106462 0.505989 0
0.137819 0.5093 0
0.172 0.511803 0
0.209171 0.513436 0
0.249287 0.514214 0
0.291539 0.514336 0
0.334981 0.514046 0
0.378775 0.513695 0
0.422019 0.513558 0
0.46537 0.513481 0
0.509316 0.513283 0
0.553307 0.513115 0
0.596796 0.51313 0
0.639216 0.513466 0
0.680003 0.514244 0
0.718639 0.515633 0
0.754925 0.517662 0
0.788983 0.520287 0
0.82092 0.523476 0
0.850843 0.527184 0.00224308
0.879133 0.531304 0.00636301
0.906188 0.535729 0.0107881
0.932326 0.540352 0.0154116
0.95787 0.545068 0.0201419
0.983154 0.549798 0.0248722
1 0.554437 0.0295109
1 0.558968 0.0340429
0 0.520577 0
0 0.525628 0
0.00128176 0.530877 0
0.0252079 0.536233 0
0.0507057 0.541131 0
0.0774701 0.545617 0
0.106081 0.549538 0
0.13724 0.552712 0
0.171176 0.555032 0
0.208103 0.556497 0
0.248081 0.557214 0
0.290318 0.557382 0
0.333852 0.557244 0
0.377783 0.557076 0
0.421149 0.557092 0
0.464607 0.557122 0
0.508644 0.557031 0
0.552728 0.556924 0
0.596277 0.557 0
0.638743 0.557351 0
0.679576 0.558145 0
0.718227 0.559503 0
0.754528 0.561486 0
0.788556 0.56405 0
0.820447 0.567147 0
0.850309 0.570733 0.00209049
0.878508 0.574716 0.00607309
0.90544 0.578988 0.0103456
0.931441 0.583429 0.014786
0.956832 0.587945 0.0193179
0.981933 0.592462 0.0238346
1 0.596857 0.0282292
1 0.601114 0.0324865
0 0.564248 0
0 0.56939 0
0.00077821 0.574533 0
0.0253758 0.579522 0
0.0506752 0.584237 0
0.0771954 0.58854 0
0.105623 0.592309 0
0.13669 0.595453 0
0.170657 0.597879 0
0.207706 0.599527 0
0.247776 0.600412 0
0.290105 0.600717 0
0.333715 0.600717 0
0.377691 0.600641 0
0.421088 0.600732 0
0.464561 0.600824 0
0.508629 0.600748 0
0.552697 0.600656 0
0.596246 0.600687 0
0.638682 0.601007 0
0.679469 0.601724 0
0.718044 0.602991 0
0.754269 0.604852 0
0.78819 0.607263 0
0.819959 0.610193 0
0.849683 0.613611 0.00190738
0.877714 0.61738 0.00569162
0.904463 0.621408 0.00973526
0.930251 0.625605 0.0139315
0.955413 0.629847 0.0181735
0.980255 0.634058 0.0224002
1 0.638132 0.0264744
1 0.642054 0.030396
0 0.607187 0
0 0.6121 0
0.00149538 0.616983 0
0.0259556 0.621851 0
0.0512398 0.626581 0
0.0778668 0.631006 0
0.106416 0.634974 0
0.137606 0.63827 0
0.171649 0.640833 0
0.208743 0.642603 0
0.248844 0.643565 0
0.291173 0.643961 0
0.334783 0.644007 0
0.378729 0.643961 0
0.42208 0.644053 0
0.465507 0.644114 0
0.509499 0.643992 0
0.553491 0.643824 0
0.596933 0.643763 0
0.639261 0.643961 0
0.679911 0.644526 0
0.718349 0.645624 0
0.754406 0.647303 0
0.788159 0.6495 0
0.819715 0.652186 0
0.849226 0.655329 0.00195315
0.877012 0.658824 0.00546273
0.903502 0.662547 0.00920119
0.929 0.666407 0.0130617
0.953841 0.670298 0.016968
0.978363 0.674144 0.0208133
1 0.677821 0.024506
1 0.681331 0.0280003
0 0.64892 0
0 0.65388 0
0.00373846 0.658915 0
0.0283665 0.663966 0
0.0537575 0.668833 0
0.0804761 0.673396 0
0.109102 0.677455 0
0.140322 0.680827 0
0.174365 0.683452 0
0.211444 0.685267 0
0.251514 0.686259 0
0.293782 0.686641 0
0.337301 0.686671 0
0.38114 0.686564 0
0.424384 0.686595 0
0.467658 0.686549 0
0.511498 0.686305 0
0.555337 0.686 0
0.598596 0.685771 0
0.640726 0.685771 0
0.681163 0.686122 0
0.719387 0.686976 0
0.755199 0.68838 0
0.788678 0.690288 0
0.819974 0.692668 0
0.849165 0.695476 0.0024567
0.876631 0.698604 0.00561532
0.902785 0.701961 0.0089723
0.927916 0.705409 0.0124361
0.952377 0.708873 0.0159152
0.976486 0.712276 0.0193027
1 0.715496 0.0225376
1 0.718532 0.0255741
0 0.690288 0
0 0.695384 0
0.00840772 0.700542 0
0.0330968 0.705669 0
0.0585489 0.710613 0
0.0852827 0.715221 0
0.113909 0.71931 0
0.145083 0.722698 0
0.179065 0.725307 0
0.216068 0.727077 0
0.256016 0.728023 0
0.298146 0.728328 0
0.341497 0.728252 0
0.385168 0.728023 0
0.428214 0.727901 0
0.471275 0.727687 0
0.514885 0.72726 0
0.558465 0.726726 0
0.601465 0.726253 0
0.64332 0.725978 0
0.683482 0.72604 0
0.721386 0.726589 0
0.756878 0.727657 0
0.790021 0.729198 0
0.820951 0.731182 0.00123598
0.84976 0.733593 0.00366217
0.876829 0.736294 0.00636301
0.902556 0.739178 0.00927749
0.927275 0.742168 0.0122835
0.951293 0.745174 0.0153048
0.97499 0.748104 0.0182345
0.998657 0.750881 0.0210117
1 0.75346 0.023621
0 0.731197 0
0 0.736339 0
0.0153811 0.741527 0
0.0400702 0.74667 0
0.0654917 0.751614 0
0.0921798 0.756191 0
0.120714 0.760235 0
0.151797 0.763561 0
0.185641 0.766079 0.00143435
0.222477 0.767742 0.00314336
0.262242 0.768551 0.00401312
0.304158 0.768704 0.00421149
0.34728 0.768444 0.00401312
0.390692 0.768017 0.00364691
0.433478 0.767681 0.00335698
0.476249 0.767224 0.00294499
0.519554 0.766522 0.00228885
0.562799 0.765698 0.00151064
0.605463 0.764904 0.00077821
0.646967 0.764294 0.000198367
0.686748 0.763989 0
0.724269 0.764141 0.000122072
0.75935 0.764782 0.000793469
0.792065 0.765896 0.0019379
0.822568 0.767437 0.00349432
0.850935 0.769375 0.00546273
0.877577 0.771618 0.00772107
0.902876 0.774044 0.0101778
0.927169 0.776593 0.012726
0.95079 0.779156 0.0153048
0.974075 0.781643 0.0178073
0.997345 0.783978 0.0201419
1 0.78613 0.0223087
0 0.771389 0
0 0.776516 0
0.0243076 0.781674 0
0.0489357 0.786755 0
0.0742504 0.791623 0
0.100816 0.796094 7.62951e-05
0.129198 0.800015 0.00404364
0.160098 0.803189 0.00727855
0.193744 0.805554 0.00968948
0.230335 0.807019 0.0112154
0.269856 0.807614 0.0118715
0.311482 0.807553 0.0118563
0.354299 0.807034 0.0113985
0.397391 0.806348 0.0107576
0.439811 0.805707 0.0101778
0.482231 0.804929 0.00944533
0.525139 0.803876 0.0084535
0.568002 0.802686 0.00730907
0.610239 0.801511 0.0061799
0.651301 0.800473 0.00518807
0.690623 0.799725 0.00448615
0.727687 0.799435 0.00421149
0.76231 0.799634 0.00444038
0.794583 0.800275 0.00512703
0.824643 0.801373 0.0062562
0.852598 0.802869 0.00776684
0.878813 0.804654 0.00958267
0.9037 0.806653 0.0116121
0.927596 0.808774 0.0137331
0.95082 0.810895 0.0158846
0.973709 0.81297 0.0179599
0.996597 0.814878 0.0198825
1 0.816617 0.0216373
0 0.810681 0
0.0104372 0.815732 0
0.0348363 0.820768 0
0.0593118 0.825711 0.00103761
0.0844587 0.830427 0.00578317
0.110826 0.834714 0.010132
0.138979 0.838437 0.013901
0.169619 0.841398 0.0169223
0.202991 0.843519 0.019089
0.239292 0.844724 0.0203555
0.278477 0.845045 0.020737
0.319753 0.844663 0.0204013
0.362188 0.843824 0.0196231
0.404883 0.842771 0.0186465
0.446891 0.841764 0.0176852
0.488853 0.840589 0.016556
0.531304 0.839124 0.0151369
0.573678 0.837491 0.0135653
0.615442 0.835859 0.0119783
0.656016 0.834379 0.010544
0.694896 0.833188 0.00939956
0.731502 0.832456 0.00869764
0.765682 0.832212 0.00848402
0.797513 0.832425 0.00874342
0.827146 0.833082 0.00943008
0.854688 0.83415 0.0105287
0.880491 0.835523 0.0119173
0.904982 0.83711 0.0135195
0.928481 0.838788 0.0152438
0.951324 0.840513 0.016968
0.973831 0.842176 0.0186465
0.996353 0.843687 0.0201724
1 0.845014 0.0215305
0 0.848875 0
0.0224002 0.853742 0.00291447
0.0465858 0.858595 0.00781262
0.0708629 0.86334 0.0125887
0.0957504 0.867811 0.0171206
0.121843 0.871855 0.02121
0.149706 0.875288 0.0247044
0.180026 0.877958 0.0274205
0.213046 0.879759 0.0292821
0.248966 0.880629 0.0302129
0.287739 0.880583 0.0302129
0.328603 0.879835 0.0295109
0.370581 0.878584 0.028336
0.412802 0.877119 0.0269169
0.454307 0.875669 0.0255131
0.495781 0.874052 0.0239567
0.537743 0.872129 0.0220951
0.579644 0.870069 0.0200809
0.620935 0.867994 0.0180667
0.661051 0.866087 0.0161898
0.699474 0.864469 0.0146181
0.735637 0.86331 0.0135042
0.76939 0.862638 0.0128786
0.800809 0.86244 0.0127108
0.830014 0.862684 0.0129854
0.85716 0.86334 0.0136721
0.882567 0.864302 0.0146639
0.906676 0.865476 0.0158694
0.929793 0.866773 0.0171817
0.952255 0.868086 0.0185245
0.974395 0.869352 0.0198062
0.996551 0.870481 0.0209506
1 0.871443 0.0219272
0.0109102 0.885832 0.0109102
0.0350652 0.890455 0.0155795
0.0589914 0.895048 0.0202182
0.0829633 0.899504 0.0247196
0.107546 0.90367 0.0289311
0.133288 0.907378 0.0327001
0.160784 0.910475 0.0358434
0.190692 0.912764 0.0381933
0.223301 0.914183 0.0396582
0.258762 0.914641 0.0401617
0.297063 0.914153 0.0397498
0.337423 0.912947 0.0385901
0.378927 0.911269 0.0369573
0.420645 0.909361 0.035111
0.461677 0.907469 0.0332799
0.502678 0.905409 0.031281
0.544167 0.903075 0.0289921
0.585611 0.900587 0.0265507
0.626429 0.8981 0.0241245
0.666117 0.895766 0.0218509
0.704082 0.893751 0.0198672
0.739834 0.89218 0.0183261
0.773144 0.891096 0.0173037
0.804166 0.890501 0.0167391
0.832975 0.890349 0.0166171
0.859709 0.890608 0.0169223
0.884749 0.891173 0.0175174
0.908476 0.891966 0.0183413
0.931228 0.892882 0.0192721
0.953323 0.893828 0.0202335
0.975128 0.894728 0.0211643
0.996963 0.895506 0.0219577
1 0.896147 0.0226139
0.0240024 0.921447 0.0240024
0.047837 0.925765 0.0283665
0.0714275 0.930007 0.0326543
0.0950179 0.934112 0.0367895
0.119219 0.937896 0.0406195
0.144533 0.941207 0.0439918
0.171588 0.943862 0.0467079
0.201022 0.945724 0.0486152
0.233143 0.94667 0.0496223
