dataset/cube-files/LUT01.cube
TITLE "Generated by Resolve"
LUT_3D_SIZE 9
0 0 0
0.08336 0 0
0.18616 0 0
0.329534 0 0
0.483757 0 0
0.634623 0 0
0.757168 0 0
0.852552 0 0
0.940352 0 0
0 0.0828107 0
0.0831006 0.0831006 0
0.18735 0.0790417 0
0.333639 0.0654002 0
0.492363 0.0508278 0
0.649271 0.0397345 0
0.778607 0.0393072 0
0.881849 0.0493172 0
0.979278 0.0643931 0
0 0.178851 0
0.0759136 0.184222 0
0.18674 0.18674 0
0.34078 0.180835 0
0.508064 0.174853 0
0.673823 0.172595 0
0.811963 0.180301 0
0.922377 0.197055 0.00535592
1 0.216709 0.0250095
0 0.312062 0
0.0579385 0.326177 0
0.177417 0.337438 0
0.337057 0.340017 0
0.511727 0.339773 0
0.681956 0.341054 0
0.821744 0.350011 0
0.931899 0.366293 0.0146487
1 0.385595 0.0339666
0 0.476875 0
0.051606 0.497154 0
0.172 0.511803 0
0.334981 0.514046 0
0.509316 0.513283 0
0.680003 0.514244 0
0.82092 0.523476 0
0.932326 0.540352 0.0154116
1 0.558968 0.0340429
0 0.64892 0
0.0537575 0.668833 0
0.174365 0.683452 0
0.337301 0.686671 0
0.511498 0.686305 0
0.681163 0.686122 0
0.819974 0.692668 0
0.927916 0.705409 0.0124361
1 0.718532 0.0255741
0 0.810681 0
0.0844587 0.830427 0.00578317
0.202991 0.843519 0.019089
0.362188 0.843824 0.0196231
0.531304 0.839124 0.0151369
0.694896 0.833188 0.00939956
0.827146 0.833082 0.00943008
0.928481 0.838788 0.0152438
1 0.845014 0.0215305
0.0367132 0.955612 0.0367132
0.130205 0.970352 0.0516365
0.242283 0.977356 0.058854
0.394171 0.970993 0.0527199
0.555779 0.959533 0.041474
0.712261 0.947051 0.0292058
0.83801 0.940658 0.0229953
0.933684 0.940612 0.0230869
1 0.941848 0.0244144
0.0749676 1 0.0749676
0.161547 1 0.0830701
0.26685 1 0.0837873
0.412207 1 0.0715953
0.567864 1 0.055024
0.71928 1 0.0383154
0.841123 1 0.0286259
0.937179 1 0.0254215
1 1 0.0244297
0 0 0.083238
0.0833295 0 0.0833295
0.186053 0 0.0777447
0.329488 0 0.0612345
0.48394 0 0.0424048
0.635157 0 0.0256199
0.758221 0 0.018204
0.854322 0 0.0204623
0.939666 0 0.0301671
0 0.082826 0.082826
0.0833906 0.0833906 0.0833906
0.188052 0.0797589 0.0797589
0.334936 0.0666819 0.0666819
0.494423 0.0528878 0.0528878
0.652186 0.042649 0.042649
0.780911 0.0434119 0.0444495
0.885252 0.0543374 0.0553597
0.98349 0.0702525 0.0712749
0 0.180407 0.0720989
0.078294 0.186587 0.078294
0.18996 0.18996 0.081651
0.34493 0.184985 0.0766766
0.51313 0.179934 0.0716411
0.679393 0.178485 0.0703288
0.817761 0.18674 0.078706
0.928252 0.2038 0.0958724
1 0.223499 0.115648
0 0.316548 0.0482948
0.0633249 0.331563 0.0633249
0.181964 0.343694 0.0774395
0.343328 0.346303 0.080293
0.518822 0.346227 0.0783703
0.688792 0.347539 0.0793011
0.828016 0.356237 0.0879835
0.938308 0.372747 0.104524
1 0.392248 0.124086
0 0.483314 0.043473
0.0554208 0.503334 0.0744182
0.176272 0.517968 0.085481
0.339925 0.52018 0.0837262
0.515663 0.519615 0.080293
0.687022 0.520699 0.0799115
0.827939 0.529931 0.0885634
0.938964 0.54667 0.10515
1 0.565042 0.123491
0 0.654215 0.0590066
0.0585336 0.674678 0.0775311
0.178882 0.689677 0.0899825
0.342 0.693004 0.0903792
0.516793 0.692454 0.0870832
0.686915 0.691859 0.0844892
0.825666 0.697871 0.0893263
0.933074 0.709972 0.100816
1 0.722408 0.112978
0 0.816098 0.0897993
0.0889601 0.835828 0.107958
0.206744 0.848753 0.118944
0.365393 0.848722 0.11664
0.534218 0.843412 0.10901
0.697795 0.836789 0.100374
0.83003 0.835966 0.0980697
0.931105 0.841001 0.102113
1 0.846601 0.107149
0.0404212 0.959487 0.138857
0.132799 0.973739 0.151797
0.24387 0.98027 0.156771
0.39498 0.973449 0.14815
0.556146 0.961471 0.134249
0.712505 0.948455 0.119402
0.838331 0.941527 0.110933
0.934127 0.941054 0.109285
1 0.941955 0.109361
0.0763409 1 0.174578
0.161944 1 0.180941
0.266361 1 0.179767
0.411124 1 0.165621
0.566476 1 0.147005
0.717906 1 0.128283
0.842634 1 0.115068
0.938888 1 0.109377
1 1 0.107591
0 0 0.189853
0.0814527 0 0.189761
0.184146 0 0.184146
0.327703 0 0.167758
0.482429 0 0.149187
0.634058 0 0.13283
0.757702 0 0.125978
0.854582 0 0.12903
0.938338 0 0.143328
0 0.081117 0.189425
0.082002 0.082002 0.190311
0.187152 0.0788434 0.187152
0.334676 0.0664225 0.174731
0.494987 0.0534371 0.161746
0.65359 0.0440528 0.152361
0.780819 0.0460822 0.158724
0.886275 0.0579385 0.170123
0.985397 0.0745861 0.186481
0 0.180438 0.180438
0.0791485 0.187442 0.187442
0.191699 0.191699 0.191699
0.347585 0.18764 0.18764
0.515236 0.183703 0.185763
0.682063 0.182956 0.185016
0.820829 0.191653 0.193698
0.931487 0.208896 0.210956
1 0.228534 0.230594
0 0.319554 0.159625
0.0671397 0.335393 0.175448
0.183047 0.348104 0.199878
0.347906 0.350866 0.195544
0.524208 0.350927 0.191012
0.693446 0.352209 0.192309
0.832151 0.360754 0.201114
0.942397 0.377584 0.218204
1 0.397238 0.238056
0 0.487511 0.165042
0.0573892 0.506996 0.206958
0.176959 0.521996 0.214969
0.341741 0.52462 0.205966
0.520272 0.524224 0.19556
0.69247 0.525353 0.19292
0.833036 0.534585 0.201373
0.943496 0.551171 0.217945
1 0.569177 0.235981
0 0.657481 0.1906
0.0609751 0.678416 0.208255
0.180591 0.693858 0.218585
0.343618 0.697429 0.214817
0.519493 0.696727 0.205966
0.6907 0.695644 0.198947
0.829541 0.701076 0.201389
0.936263 0.712505 0.211643
1 0.724285 0.223087
0 0.819364 0.220233
0.0910964 0.839033 0.237034
0.207828 0.85182 0.245838
0.365652 0.851484 0.240208
0.534295 0.845655 0.228244
0.698283 0.838346 0.215244
0.830869 0.836805 0.209583
0.931868 0.841184 0.211521
1 0.846204 0.215274
0.0418402 0.961105 0.266819
0.133013 0.974853 0.278065
0.242924 0.980972 0.280919
0.393103 0.97377 0.269612
0.553796 0.961379 0.252476
0.710201 0.947845 0.234089
0.836454 0.940459 0.222492
0.932662 0.93959 0.218479
1 0.940185 0.217044
0.0754711 1 0.299641
0.160067 1 0.304479
0.263539 1 0.301534
0.407584 1 0.285344
0.562768 1 0.264088
0.717403 1 0.239109
0.842878 1 0.222446
0.938399 1 0.215396
1 1 0.213977
0 0 0.344289
0.0758221 0 0.344076
0.178531 0 0.338476
0.322271 0 0.322271
0.477302 0 0.304021
0.629419 0 0.288136
0.753704 0 0.281926
0.848508 0 0.289784
0.932876 0 0.307012
0 0.0757916 0.34403
0.0770428 0.0770428 0.345296
0.182712 0.074403 0.342657
0.330953 0.0627146 0.330953
0.492088 0.0505531 0.318791
0.649836 0.0422522 0.313375
0.776013 0.0453498 0.325124
0.882811 0.0581064 0.336049
0.982895 0.0754253 0.352148
0 0.17702 0.336965
0.0765698 0.184878 0.344808
0.190005 0.190005 0.34995
0.345937 0.186938 0.349142
0.509483 0.184237 0.358633
0.678645 0.184039 0.353613
0.818524 0.193042 0.360555
0.929717 0.210361 0.376791
1 0.229847 0.39559
0 0.319158 0.319158
0.0671397 0.335653 0.337362
0.179034 0.348333 0.380682
0.351644 0.351644 0.351644
0.523705 0.352148 0.35523
0.692409 0.353277 0.356344
0.831083 0.361868 0.36495
0.941543 0.378912 0.381994
1 0.398627 0.401694
0 0.487251 0.34464
0.0550851 0.506371 0.393942
0.171756 0.521584 0.404181
0.334844 0.525368 0.391836
0.521172 0.525139 0.358785
0.694286 0.526314 0.353048
0.833967 0.535531 0.362295
0.943786 0.551904 0.379065
1 0.569543 0.397086
0 0.656764 0.374105
0.059205 0.678035 0.392294
0.177371 0.693843 0.40264
0.339086 0.697841 0.396078
0.516426 0.697169 0.377874
0.690578 0.695521 0.361151
0.829755 0.700313 0.36025
0.935393 0.711101 0.369863
1 0.722271 0.380972
0 0.818524 0.401984
0.0889601 0.838026 0.41825
0.204242 0.850645 0.425895
0.360586 0.850065 0.417578
0.528801 0.84387 0.400275
0.693965 0.835981 0.380056
0.827756 0.833707 0.368795
0.928908 0.837415 0.367987
1 0.841886 0.370657
0.0390326 0.958495 0.445502
0.128923 0.97174 0.455619
0.237461 0.977462 0.456977
0.386389 0.96994 0.443397
0.546349 0.957244 0.422675
0.702983 0.943343 0.399466
0.830243 0.935546 0.383017
0.927352 0.934279 0.375494
1 0.9346 0.372107
0.0704509 1 0.47509
0.153948 1 0.478798
0.256382 1 0.474495
0.401343 1 0.452369
0.559258 1 0.423072
0.714015 1 0.394812
0.839155 1 0.376196
0.9337 1 0.368902
1 1 0.368322
0 0 0.511055
0.0692149 0 0.510765
0.172 0 0.505241
0.315953 0 0.48925
0.471366 0 0.471366
0.624002 0 0.456001
0.749004 0 0.450523
0.836149 0 0.4748
0.926101 0 0.486152
0 0.0695964 0.511131
0.0712749 0.0712749 0.51281
0.177523 0.0692149 0.510765
0.326558 0.0583047 0.49984
0.488533 0.0469825 0.488533
0.641108 0.0399634 0.498039
0.769406 0.0438087 0.509102
0.877592 0.057496 0.518456
0.978698 0.0754406 0.533486
0 0.172915 0.506157
0.0733196 0.181628 0.514855
0.187686 0.187686 0.520912
0.340703 0.185428 0.533608
0.499977 0.183566 0.557549
0.671717 0.184146 0.543984
0.813321 0.1935 0.546059
0.925444 0.210849 0.559411
1 0.230106 0.576211
0 0.318059 0.491356
0.0648508 0.33463 0.521355
0.173266 0.346975 0.583978
0.324178 0.351354 0.6103
0.509041 0.352743 0.566613
0.684794 0.353521 0.546059
0.826078 0.362264 0.548394
0.937758 0.379431 0.562814
1 0.39913 0.581048
0 0.485222 0.546761
0.0520027 0.504402 0.595346
0.166232 0.519585 0.610513
0.321599 0.524285 0.615213
0.524926 0.524926 0.524926
0.692393 0.526558 0.530663
0.831586 0.535683 0.539788
0.941085 0.551751 0.555856
1 0.568933 0.573037
0 0.654932 0.57261
0.0563516 0.676356 0.592493
0.172656 0.692302 0.605585
0.330755 0.696605 0.603235
0.505592 0.696498 0.581598
0.689296 0.69424 0.535531
0.828855 0.698405 0.530449
0.93286 0.708598 0.540673
1 0.719112 0.55172
0 0.816388 0.59881
0.0854353 0.835599 0.615503
0.198917 0.847883 0.623697
0.352804 0.847013 0.615503
0.519097 0.840711 0.595087
0.686076 0.832471 0.563394
0.823468 0.829419 0.540169
0.925109 0.832486 0.535637
1 0.836469 0.538033
0.0348058 0.954467 0.639063
0.123354 0.967147 0.648798
0.230335 0.972442 0.649744
0.377539 0.964614 0.635279
0.536049 0.951751 0.612055
0.692714 0.937682 0.583093
0.821927 0.92958 0.558495
0.920989 0.927916 0.544778
1 0.927993 0.538796
0.0640574 1 0.665263
0.146426 1 0.668391
0.250248 1 0.654078
0.396567 1 0.624811
0.554803 1 0.59176
0.709545 1 0.560937
0.83415 1 0.541344
0.927459 1 0.535134
1 1 0.535073
0 0 0.672862
0.0630045 0 0.672541
0.165911 0 0.66714
0.31014 0 0.651423
0.46598 0 0.633967
0.619181 0 0.619181
0.74464 0 0.615198
0.825711 0 0.657893
0.919509 0 0.66363
0 0.0639048 0.673442
0.0660716 0.0660716 0.675608
0.172976 0.0646677 0.674205
0.32282 0.0545663 0.664103
0.485527 0.0440986 0.653971
0.629847 0.0380102 0.691218
0.76289 0.0426947 0.693065
0.872236 0.0572976 0.700252
0.974273 0.0758373 0.713512
0 0.169482 0.67071
0.0707713 0.179065 0.680293
0.186038 0.186053 0.687373
0.3337 0.183993 0.726345
0.492821 0.182696 0.75407
0.664561 0.184268 0.736538
0.807187 0.194095 0.733272
0.920165 0.211536 0.742367
1 0.230533 0.755978
0 0.317586 0.658885
0.0615702 0.333349 0.713252
0.167895 0.345449 0.788952
0.323125 0.350317 0.798947
0.498619 0.352316 0.774411
0.67393 0.35375 0.745907
0.818326 0.363012 0.737484
0.932036 0.380346 0.745769
1 0.400015 0.760418
0 0.483009 0.750973
0.0498207 0.502708 0.789944
0.163531 0.517968 0.806195
0.318685 0.522972 0.811276
0.489189 0.525429 0.800397
0.674388 0.527687 0.746365
0.822873 0.536446 0.728481
0.935042 0.552056 0.736065
1 0.568658 0.749249
0 0.653437 0.767102
0.0540932 0.674891 0.788556
0.169024 0.690776 0.80444
0.323888 0.694972 0.808637
0.488151 0.695186 0.808865
0.692927 0.692927 0.692927
0.824811 0.696925 0.702052
0.927794 0.706493 0.71162
1 0.71635 0.721477
0 0.814359 0.792264
0.0820935 0.833158 0.809857
0.193759 0.844923 0.819699
0.344701 0.84358 0.814771
0.506157 0.837156 0.800046
0.67013 0.829175 0.765118
0.819348 0.825284 0.706401
0.921584 0.827787 0.697353
1 0.831388 0.700999
0.0305943 0.950408 0.82948
0.1178 0.962493 0.83949
0.223163 0.967254 0.841108
0.371084 0.959213 0.817945
0.531289 0.945983 0.785
0.688518 0.931655 0.750576
0.8168 0.923491 0.72401
0.915618 0.921767 0.707698
1 0.92166 0.698878
0.0576791 1 0.852445
0.141009 1 0.843244
0.245502 1 0.822934
0.392248 1 0.78941
0.550713 1 0.75317
0.705287 1 0.720638
0.829114 1 0.701259
0.921263 1 0.696925
1 1 0.696971
0 0 0.799847
0.0595254 0 0.799542
0.1626 0 0.794324
0.307164 0 0.778927
0.463462 0 0.761944
0.617319 0 0.747799
0.738689 0 0.757549
0.820844 0 0.804593
0.915633 0 0.809369
0 0.0610819 0.801099
0.0637675 0.0637675 0.803784
0.171405 0.0630961 0.803113
0.322072 0.0538186 0.793835
0.48246 0.0440681 0.795727
0.622812 0.0384222 0.852949
0.75938 0.0442359 0.845762
0.869459 0.0597391 0.850965
0.972168 0.0788891 0.862226
0 0.169039 0.800763
0.0712291 0.179538 0.811246
0.185641 0.187045 0.828687
0.328084 0.184756 0.896666
0.490822 0.184298 0.91342
0.661295 0.186664 0.896315
0.803662 0.196994 0.890043
0.916854 0.214557 0.895155
1 0.233524 0.905241
0 0.319463 0.799603
0.0599222 0.33402 0.88278
0.166583 0.346471 0.957427
0.324758 0.351934 0.952758
0.496712 0.353933 0.93547
0.668284 0.356008 0.911803
0.812573 0.366033 0.898955
0.927504 0.383703 0.900923
1 0.403418 0.910658
0 0.483345 0.921111
0.0506752 0.5037 0.947234
0.164813 0.519265 0.962463
0.320912 0.524498 0.964431
0.490822 0.527077 0.954223
0.664271 0.530083 0.925414
0.812482 0.539406 0.898848
0.927871 0.554803 0.893065
1 0.570871 0.898283
0 0.654673 0.926421
0.0548867 0.676112 0.948608
0.169162 0.691844 0.965316
0.323064 0.69575 0.970428
0.487037 0.695628 0.968292
0.649516 0.694835 0.953613
0.80351 0.698604 0.889876
0.917464 0.707225 0.86656
1 0.716289 0.86598
0 0.814847 0.951247
0.0814527 0.833127 0.969528
0.191623 0.844266 0.980667
0.341634 0.842405 0.973434
0.504448 0.835615 0.948669
0.664561 0.82742 0.918059
0.823407 0.823407 0.823407
0.916716 0.825925 0.832074
1 0.829145 0.835294
0.0287633 0.948714 0.985992
0.114763 0.960159 0.99646
0.221592 0.964935 0.984573
0.370382 0.956512 0.953918
0.530938 0.942885 0.91606
0.68835 0.928298 0.877729
0.816449 0.919966 0.848692
0.914519 0.918181 0.831724
1 0.91812 0.824353
0.0548104 1 0.994781
0.138628 1 0.978927
0.243595 1 0.953857
0.390707 1 0.916518
0.549279 1 0.877806
0.703471 1 0.844587
0.826307 1 0.82678
0.917784 1 0.823957
1 1 0.824125
0 0 0.892805
0.058732 0 0.892592
0.162036 0 0.887587
0.306966 0 0.872572
0.463798 0 0.856107
0.618372 0 0.842695
0.730877 0 0.883162
0.818982 0 0.919753
0.914626 0 0.923766
0 0.0610666 0.894926
0.064332 0.064332 0.898192
0.172747 0.0644388 0.898299
0.324254 0.0560159 0.88986
0.478584 0.0464027 0.920562
0.622446 0.0414282 0.973907
0.759197 0.0483711 0.966445
0.869596 0.0647135 0.970352
0.972641 0.0844129 0.979828
0 0.171557 0.897108
0.0746471 0.182956 0.908507
0.185611 0.190082 0.952834
0.32488 0.187686 1
0.492897 0.18851 1
0.662104 0.191424 1
0.80351 0.202136 1
0.916167 0.219776 1
1 0.238987 1
0 0.322942 0.922759
0.0603799 0.336767 1
0.171115 0.350744 1
0.328984 0.356161 1
0.499123 0.357931 1
0.668299 0.360555 1
0.81091 0.371206 1
0.925551 0.389288 1
1 0.40914 1
0 0.48687 1
0.05449 0.507485 1
0.169131 0.523354 1
0.325734 0.528756 1
0.495094 0.531334 1
0.664195 0.534417 1
0.80763 0.54406 1
0.922332 0.559533 1
1 0.575265 1
0 0.65864 1
0.0585946 0.680003 1
0.17261 0.695537 1
0.326421 0.699138 1
0.490959 0.698589 1
0.653239 0.69723 1
0.791089 0.701244 1
0.904631 0.710002 1
1 0.718593 0.989288
0 0.817838 1
0.0834821 0.835554 1
0.193133 0.846143 1
0.344579 0.843992 1
0.507866 0.836683 1
0.668421 0.828 1
0.800488 0.824735 0.98529
0.903807 0.826825 0.960662
0.997299 0.829374 0.941268
0.0293584 0.949416 1
0.115969 0.960922 1
0.223255 0.965331 1
0.372412 0.956497 1
0.533272 0.942519 1
0.690761 0.927672 0.968505
0.818479 0.919188 0.937881
0.91725 0.91725 0.91725
1 0.917296 0.917296
0.0547799 1 1
0.13901 1 1
0.244434 1 1
0.391836 1 1
0.550347 1 0.966934
0.70399 1 0.934249
0.825574 1 0.919417
0.917006 0.999756 0.917006
1 1 0.917342
0 0 0.975509
0.0588083 0 0.975418
0.162387 0 0.970687
0.307729 0 0.9561
0.465141 0 0.940215
0.619074 0 0.932769
0.72108 0 1
0.818463 0 1
0.914839 0 1
0 0.0620279 0.978637
0.0659495 0.0659495 0.982559
0.175174 0.066865 0.983474
0.326787 0.059144 0.97969
0.473243 0.0490272 1
0.623835 0.0453651 1
0.760616 0.0532845 1
0.871015 0.0703899 1
0.97409 0.0905776 1
0 0.175174 0.983474
0.0788739 0.187335 0.998413
0.18468 0.193194 1
0.326741 0.191867 1
0.49659 0.193545 1
0.664805 0.196826 1
0.805035 0.207736 1
0.916701 0.225376 1
1 0.24506 1
0 0.326162 1
0.0619059 0.340108 1
0.176394 0.35584 1
0.333913 0.361105 1
0.503059 0.362737 1
0.670848 0.365759 1
0.81178 0.376822 1
0.925307 0.395254 1
1 0.415244 1
0 0.491539 1
0.0593118 0.51223 1
0.174365 0.528359 1
0.331212 0.533837 1
0.500099 0.536339 1
0.667094 0.5393 1
0.807019 0.548898 1
0.919127 0.564324 1
1 0.579797 1
0 0.663447 1
0.0632792 0.684718 1
0.177127 0.700008 1
0.330877 0.703227 1
0.495933 0.702251 1
0.658885 0.700359 1
0.794079 0.703853 1
0.901854 0.712428 1
1 0.720699 1
0 0.821485 1
0.0863355 0.838605 1
0.196612 0.848936 1
0.34847 0.846326 1
0.51223 0.838544 1
0.673136 0.829389 1
0.805264 0.825666 1
0.908217 0.827405 1
1 0.829709 1
0.0311284 0.951156 1
0.118181 0.962524 1
0.225818 0.966552 1
0.375311 0.957305 1
0.536416 0.943023 1
0.693843 0.927932 1
0.820981 0.919264 1
0.916777 0.917311 1
1 0.91725 1
0.0556344 1 1
0.140307 1 1
0.246143 1 1
0.393744 1 1
0.552056 1 1
0.704875 1 1
0.825528 1 1
0.917052 0.999802 0.999802
1 1 1
